polaris-icons/icons/newicons/SidebarRightMajor.svg

<svg width="20" height="20" viewBox="0 0 20 20" fill="none" xmlns="http://www.w3.org/2000/svg">
<path fill-rule="evenodd" clip-rule="evenodd" d="M14.5 4.5V15.5H15.5V4.5L14.5 4.5ZM13 15.5C13 16.3284 13.6716 17 14.5 17H15.5C16.3284 17 17 16.3284 17 15.5V4.5C17 3.67157 16.3284 3 15.5 3L14.5 3C13.6716 3 13 3.67157 13 4.5V15.5Z" fill="black"/>
<path fill-rule="evenodd" clip-rule="evenodd" d="M4.75 17C3.7835 17 3 16.2165 3 15.25L3 14.25C3 13.8358 3.33579 13.5 3.75 13.5C4.16421 13.5 4.5 13.8358 4.5 14.25L4.5 15.25C4.5 15.3881 4.61193 15.5 4.75 15.5H5.75C6.16421 15.5 6.5 15.8358 6.5 16.25C6.5 16.6642 6.16421 17 5.75 17H4.75Z" fill="black"/>
<path fill-rule="evenodd" clip-rule="evenodd" d="M11.5 15.25C11.5 16.2165 10.7165 17 9.75 17H8.75C8.33579 17 8 16.6642 8 16.25C8 15.8358 8.33579 15.5 8.75 15.5H9.75C9.88807 15.5 10 15.3881 10 15.25V14.25C10 13.8358 10.3358 13.5 10.75 13.5C11.1642 13.5 11.5 13.8358 11.5 14.25V15.25Z" fill="black"/>
<path fill-rule="evenodd" clip-rule="evenodd" d="M3 4.75C3 3.7835 3.7835 3 4.75 3L5.75 3C6.16421 3 6.5 3.33579 6.5 3.75C6.5 4.16421 6.16421 4.5 5.75 4.5L4.75 4.5C4.61193 4.5 4.5 4.61193 4.5 4.75V5.75C4.5 6.16421 4.16421 6.5 3.75 6.5C3.33579 6.5 3 6.16421 3 5.75L3 4.75Z" fill="black"/>
<path fill-rule="evenodd" clip-rule="evenodd" d="M9.75 3C10.7165 3 11.5 3.7835 11.5 4.75V5.75C11.5 6.16421 11.1642 6.5 10.75 6.5C10.3358 6.5 10 6.16421 10 5.75V4.75C10 4.61193 9.88807 4.5 9.75 4.5L8.75 4.5C8.33579 4.5 8 4.16421 8 3.75C8 3.33579 8.33579 3 8.75 3L9.75 3Z" fill="black"/>
<path fill-rule="evenodd" clip-rule="evenodd" d="M3.75 8.25C4.16421 8.25 4.5 8.58579 4.5 9L4.5 11C4.5 11.4142 4.16421 11.75 3.75 11.75C3.33579 11.75 3 11.4142 3 11L3 9C3 8.58579 3.33579 8.25 3.75 8.25Z" fill="black"/>
<path fill-rule="evenodd" clip-rule="evenodd" d="M10.75 8.25C11.1642 8.25 11.5 8.58579 11.5 9V11C11.5 11.4142 11.1642 11.75 10.75 11.75C10.3358 11.75 10 11.4142 10 11V9C10 8.58579 10.3358 8.25 10.75 8.25Z" fill="black"/>
</svg>

<svg viewBox="0 0 20 20" fill="none" xmlns="http://www.w3.org/2000/svg"><path fill-rule="evenodd" clip-rule="evenodd" d="M14.5 4.5v11h1v-11h-1Zm-1.5 11a1.5 1.5 0 0 0 1.5 1.5h1a1.5 1.5 0 0 0 1.5-1.5v-11a1.5 1.5 0 0 0-1.5-1.5h-1a1.5 1.5 0 0 0-1.5 1.5v11Z" fill="#5C5F62"/><path fill-rule="evenodd" clip-rule="evenodd" d="M4.75 17a1.75 1.75 0 0 1-1.75-1.75v-1a.75.75 0 0 1 1.5 0v1c0 .138.112.25.25.25h1a.75.75 0 0 1 0 1.5h-1Z" fill="#5C5F62"/><path fill-rule="evenodd" clip-rule="evenodd" d="M11.5 15.25a1.75 1.75 0 0 1-1.75 1.75h-1a.75.75 0 0 1 0-1.5h1a.25.25 0 0 0 .25-.25v-1a.75.75 0 0 1 1.5 0v1Z" fill="#5C5F62"/><path fill-rule="evenodd" clip-rule="evenodd" d="M3 4.75c0-.966.784-1.75 1.75-1.75h1a.75.75 0 0 1 0 1.5h-1a.25.25 0 0 0-.25.25v1a.75.75 0 0 1-1.5 0v-1Z" fill="#5C5F62"/><path fill-rule="evenodd" clip-rule="evenodd" d="M9.75 3c.966 0 1.75.784 1.75 1.75v1a.75.75 0 0 1-1.5 0v-1a.25.25 0 0 0-.25-.25h-1a.75.75 0 0 1 0-1.5h1Z" fill="#5C5F62"/><path fill-rule="evenodd" clip-rule="evenodd" d="M3.75 8.25a.75.75 0 0 1 .75.75v2a.75.75 0 0 1-1.5 0v-2a.75.75 0 0 1 .75-.75Z" fill="#5C5F62"/><path fill-rule="evenodd" clip-rule="evenodd" d="M10.75 8.25a.75.75 0 0 1 .75.75v2a.75.75 0 0 1-1.5 0v-2a.75.75 0 0 1 .75-.75Z" fill="#5C5F62"/></svg>
